fs/comment_edit_20_regular.svg

<svg viewBox="0 0 20 20" fill="none" xmlns="http://www.w3.org/2000/svg" height="1em" width="1em">
  <path d="M17 8.13362V5.56582C17 4.71348 16.2962 4 15.4 4H4.6C3.70383 4 3 4.71348 3 5.56582V12.2764C3 13.1288 3.70383 13.8423 4.6 13.8423H6.19908L6.2 17L6.20346 16.9997L6.20502 16.9988L8.3716 15.3994L8.05813 16.6533C8.03677 16.7387 8.0215 16.8237 8.01199 16.9078L6.79895 17.8034C6.35668 18.1298 5.73 18.0406 5.39921 17.6042C5.26989 17.4335 5.2 17.2262 5.2 17.0133L5.19937 14.8423H4.6C3.16406 14.8423 2 13.6935 2 12.2764V5.56582C2 4.14876 3.16406 3 4.6 3H15.4C16.8359 3 18 4.14876 18 5.56582V8.69046C17.6997 8.43265 17.3588 8.24703 17 8.13362ZM14.8072 9.54599L9.9778 14.3754C9.69622 14.657 9.49647 15.0098 9.39989 15.3961L9.02541 16.894C8.86256 17.5454 9.45261 18.1355 10.104 17.9726L11.6019 17.5981C11.9882 17.5016 12.341 17.3018 12.6226 17.0202L17.452 12.1908C18.1824 11.4605 18.1824 10.2763 17.452 9.54599C16.7217 8.81564 15.5376 8.81564 14.8072 9.54599Z" fill="#212121"/>
</svg>

<svg viewBox="0 0 20 20" fill="none" xmlns="http://www.w3.org/2000/svg" height="1em" width="1em">
  <path d="M17 8.134V5.566C17 4.713 16.296 4 15.4 4H4.6C3.704 4 3 4.713 3 5.566v6.71c0 .853.704 1.566 1.6 1.566h1.6V17h.003l.002-.001 2.167-1.6-.314 1.254c-.021.086-.037.17-.046.255l-1.213.895a1.009 1.009 0 0 1-1.4-.199.978.978 0 0 1-.199-.59v-2.172h-.6c-1.436 0-2.6-1.149-2.6-2.566v-6.71C2 4.149 3.164 3 4.6 3h10.8C16.836 3 18 4.149 18 5.566V8.69a2.853 2.853 0 0 0-1-.556Zm-2.193 1.412-4.83 4.83a2.197 2.197 0 0 0-.577 1.02l-.375 1.498a.89.89 0 0 0 1.079 1.079l1.498-.375a2.185 2.185 0 0 0 1.02-.578l4.83-4.83a1.87 1.87 0 1 0-2.645-2.644Z" fill="#212121"/>
</svg>
